X: 43240
T: Wizard's Waltz, The
R: jig
M: 6/8
K: Eminor
e2d cBA|GAF E2 B|e2f gfe|gaf e3|
a2g fed|cdB A2E|A2B cBA|cdB A3|
BfB BfB|gcg cgc|BfB BfB|gcg cgc|
fBB gcc|fBB gcc|B^c^d efg|^def gab|
egb bge|^dfb fdB|dfa bfd|^cea aec|
=ceg ceg|Beg Beg|_Beg Beg|=Beg fe^d|
egb bge|^dfb fdB|dfa bfd|^cea aec|
=ceg ceg|Beg Beg|_Beg Beg|=Beg fe^d:|
e2d cBA|GAF E2 ^d|e6|e'6||

